svgs/olx.svg

<svg width="24" height="24" viewBox="0 0 24 24" fill="none" xmlns="http://www.w3.org/2000/svg">
<path fill-rule="evenodd" clip-rule="evenodd" d="M6.64857 13.368C7.39264 13.368 7.99583 12.7556 7.99583 12C7.99583 11.2444 7.39264 10.6319 6.64857 10.6319C5.90449 10.6319 5.30131 11.2444 5.30131 12C5.30131 12.7556 5.90449 13.368 6.64857 13.368ZM6.64857 16.7203C9.2159 16.7203 11.2971 14.6069 11.2971 12C11.2971 9.39305 9.2159 7.2797 6.64857 7.2797C4.08123 7.2797 2 9.39305 2 12C2 14.6069 4.08123 16.7203 6.64857 16.7203Z" fill="black"/>
<path d="M12.3043 6.21764H15.0547V17.7824H12.3043V6.21764Z" fill="black"/>
<path d="M22 10.9992V8.97656H20.1023L19.0308 10.0645L17.9594 8.97656H16.0616V10.9992L17.086 12.0394L16.0616 13.0796V15.0066H18.0535L19.0308 14.0142L20.0081 15.0066H22V13.0795L20.9757 12.0394L22 10.9992Z" fill="black"/>
</svg>

<svg xmlns="http://www.w3.org/2000/svg" viewBox="0 0 24 24"><path fill-rule="evenodd" d="M12.304 6.218h2.75v11.564h-2.75zM22 11V8.976h-1.898l-1.071 1.088-1.072-1.088h-1.897v2.022l1.024 1.04-1.024 1.04v1.928h1.991l.978-.993.977.993H22v-1.928l-1.024-1.04zM6.649 13.368c.744 0 1.347-.612 1.347-1.368s-.603-1.368-1.347-1.368c-.745 0-1.348.612-1.348 1.368s.603 1.368 1.348 1.368m0 3.352c2.567 0 4.648-2.113 4.648-4.72S9.216 7.28 6.649 7.28C4.08 7.28 2 9.393 2 12s2.081 4.72 4.649 4.72"/></svg>
